icon_installer/data/icons/scalable/actions/show-deck-symbolic.svg

<?xml version="1.0" encoding="UTF-8"?>
<svg height="16px" viewBox="0 0 16 16" width="16px" xmlns="http://www.w3.org/2000/svg">
    <path d="m 11.964844 1.011719 c 1.664062 0 3.035156 1.371093 3.035156 3.035156 v 7.917969 c 0 1.664062 -1.371094 3.03125 -3.035156 3.03125 h -7.933594 v -2 h 7.933594 c 0.589844 0 1.035156 -0.441406 1.035156 -1.03125 v -7.917969 c 0 -0.589844 -0.445312 -1.035156 -1.035156 -1.035156 h -7.933594 v -2 z m -4.964844 2.996093 v 1 c 0 0.257813 -0.128906 0.527344 -0.3125 0.71875 l -1.28125 1.28125 h 4.59375 v 2 h -4.59375 l 1.28125 1.28125 c 0.183594 0.191407 0.3125 0.410157 0.3125 0.71875 v 1 h -1 c -0.308594 0 -0.550781 -0.089843 -0.75 -0.28125 l -3.65625 -3.71875 l 3.65625 -3.71875 c 0.199219 -0.191406 0.441406 -0.28125 0.75 -0.28125 z m 0 0" fill="#222222"/>
</svg>

<svg xmlns="http://www.w3.org/2000/svg" width="16" height="16"><path fill="#222" d="M11.965 1.012A3.05 3.05 0 0 1 15 4.047v7.918a3.048 3.048 0 0 1-3.035 3.031H4.03v-2h7.934A1.01 1.01 0 0 0 13 11.965V4.047c0-.59-.445-1.035-1.035-1.035H4.03v-2zM7 4.008v1c0 .258-.129.527-.313.719l-1.28 1.28H10v2H5.406l1.282 1.282c.183.191.312.41.312.719v1H6c-.309 0-.55-.09-.75-.281l-3.656-3.72L5.25 4.29c.2-.191.441-.281.75-.281zm0 0"/></svg>
